X:16
T:Drowsy Maggie
R:reel
H:Used as tune for "Ockington"
M:4/4
L:1/8
M:C|
K:Edor
|: ~E2BE dEBE | ~E2BE AFDF | ~E2BE dEBE | BABc dAFD | E2 E2 E4 :|
d2fd c2ec | defg afge | d2fd cdec | BABc dAFD | E2 E2 E4 |]

